64x64/mimetypes/application-pgp-keys.svg

<svg height="64" width="64" xmlns="http://www.w3.org/2000/svg"><path d="m12.75 5c-1.524 0-2.75 1.249-2.75 2.8v50.4c0 1.55 1.226 2.8 2.75 2.8h38.5c1.522 0 2.75-1.25 2.75-2.8v-35.2l-14-4-4-14z" opacity=".2"/><path d="m12.75 4c-1.524 0-2.75 1.249-2.75 2.8v50.4c0 1.55 1.226 2.8 2.75 2.8h38.5c1.522 0 2.75-1.25 2.75-2.8v-35.2l-14-4-4-14z" fill="#f4f4f7"/><path d="m54 23-18-18v15.188a2.806 2.806 0 0 0 2.813 2.812z" opacity=".2"/><path d="m54 22-18-18v15.188a2.806 2.806 0 0 0 2.813 2.812z" fill="#fafafa"/><path d="m12.75 4c-1.524 0-2.75 1.25-2.75 2.8v1c0-1.55 1.226-2.8 2.75-2.8h23.25v-1z" fill="#f4f4f7" opacity=".2"/><path d="m25 32a9 9 0 0 0 0 18 9 9 0 0 0 8.473-6h5.527v3h6v-3h2v-6h-13.523a9 9 0 0 0 -8.475-6zm0 6a3 3 0 1 1 0 6 3 3 0 0 1 0-6z" fill="#129a4d"/></svg>

<svg xmlns="http://www.w3.org/2000/svg" width="64" height="64"><path style="opacity:.2" d="M12.75 5C11.226 5 10 6.249 10 7.8v50.4c0 1.55 1.226 2.8 2.75 2.8h38.5c1.522 0 2.75-1.25 2.75-2.8V23l-14-4-4-14z"/><path style="fill:#f4f4f7" d="M12.75 4C11.226 4 10 5.249 10 6.8v50.4c0 1.55 1.226 2.8 2.75 2.8h38.5c1.522 0 2.75-1.25 2.75-2.8V22l-14-4-4-14z"/><path style="opacity:.2" d="M54 23 36 5v15.188A2.806 2.806 0 0 0 38.813 23z"/><path style="fill:#fafafa" d="M54 22 36 4v15.188A2.806 2.806 0 0 0 38.813 22z"/><path style="opacity:.2;fill:#f4f4f7" d="M12.75 4C11.226 4 10 5.25 10 6.8v1C10 6.25 11.226 5 12.75 5H36V4H12.75z"/><path style="fill:#129a4d" d="M25 32a9 9 0 0 0 0 18 9 9 0 0 0 8.473-6H39v3h6v-3h2v-6H33.477a9 9 0 0 0-8.475-6H25zm0 6a3 3 0 1 1 0 6 3 3 0 0 1 0-6z"/></svg>
